src/assets/umbrel-qr-icon.svg

<svg width="68" height="68" viewBox="0 0 68 68" fill="none" xmlns="http://www.w3.org/2000/svg">
<rect width="68" height="68" fill="url(#paint0_linear)"/>
<rect x="4" y="5" width="59" height="59" rx="10" fill="url(#paint1_linear)"/>
<g clip-path="url(#clip0)">
<path d="M33.8281 54.5602C34.4842 54.5602 35.2691 54.4387 36.1829 54.1958C39.268 53.0361 40.8105 50.8028 40.8105 47.4961V38.0342C40.8105 37.854 40.7988 37.6972 40.7754 37.564C40.7754 37.5405 40.7734 37.5249 40.7695 37.517C40.7656 37.5092 40.7559 37.4935 40.7402 37.47C40.42 36.6629 39.9123 36.2593 39.2172 36.2593H39.1235L38.9243 36.2711H38.8189C38.7955 36.2711 38.7681 36.2829 38.7369 36.3064C37.9324 36.6198 37.5302 37.2819 37.5302 38.2928V47.9897C37.5302 48.5148 37.3974 49.028 37.1319 49.5295C36.3821 50.7127 35.2691 51.3043 33.793 51.3043C32.6761 51.3043 31.731 50.9556 30.9578 50.2582C30.3252 49.7411 30.001 48.789 29.9854 47.4021L29.962 37.8696C29.962 37.7834 29.9542 37.6933 29.9386 37.5993C29.9386 37.5679 29.9366 37.5464 29.9327 37.5346C29.9288 37.5229 29.9151 37.5013 29.8917 37.47C29.5637 36.6472 29.0443 36.2358 28.3335 36.2358C28.107 36.2593 27.9547 36.2868 27.8766 36.3181C27.0956 36.6316 26.7051 37.1605 26.7051 37.9049L26.7402 47.7899C26.748 49.2631 27.1542 50.5913 27.9586 51.7745C29.4582 53.6316 31.3991 54.5602 33.7812 54.5602H33.8281Z" fill="white"/>
<path fill-rule="evenodd" clip-rule="evenodd" d="M22.6033 30.1349C20.8134 30.1349 19.7168 30.66 19.0195 31.4853C18.4482 32.1614 17.4389 32.2449 16.765 31.6718C16.0911 31.0987 16.0079 30.086 16.5791 29.4099C18.042 27.6786 20.148 26.9253 22.6033 26.9253C24.6666 26.9253 26.5577 27.451 28.236 28.5102C29.9748 27.4762 31.8069 26.9253 33.7155 26.9253C35.5815 26.9253 37.3433 27.4523 38.9809 28.4549C40.4426 27.4675 42.1971 27.0138 44.152 27.0138C46.6039 27.0138 48.7636 27.7261 50.5187 29.2259C51.1912 29.8006 51.272 30.8135 50.6992 31.4882C50.1263 32.1629 49.1168 32.244 48.4442 31.6693C47.3456 30.7304 45.9523 30.2234 44.152 30.2234C42.4514 30.2234 41.229 30.6748 40.3359 31.4483C39.6372 32.0533 38.6166 32.1 37.866 31.5613L37.8378 31.541C36.4855 30.5779 35.1213 30.1349 33.7155 30.1349C32.2842 30.1349 30.831 30.5945 29.3312 31.6126C28.627 32.0906 27.6985 32.0696 27.0165 31.5602L26.967 31.5232C25.7118 30.6014 24.2765 30.1349 22.6033 30.1349Z" fill="white"/>
<path fill-rule="evenodd" clip-rule="evenodd" d="M42.586 21.042C40.2533 19.0121 37.2459 17.9809 33.4258 18.0546C29.5878 18.1286 26.6072 19.2351 24.3451 21.2654C22.0639 23.3128 20.3625 26.4356 19.3578 30.8083C19.1594 31.672 18.3007 32.2107 17.4398 32.0116C16.579 31.8125 16.042 30.951 16.2404 30.0874C17.3431 25.288 19.2947 21.4918 22.2121 18.8733C25.1487 16.2376 28.9124 14.9314 33.3643 14.8456C37.8342 14.7594 41.6528 15.9813 44.6821 18.6173C47.6852 21.2305 49.762 25.1021 51.0304 30.0479C51.2505 30.9063 50.7354 31.7812 49.8799 32.002C49.0243 32.2229 48.1523 31.7061 47.9322 30.8477C46.7664 26.3019 44.9451 23.0948 42.586 21.042Z" fill="white"/>
</g>
<defs>
<linearGradient id="paint0_linear" x1="0" y1="0" x2="68" y2="68" gradientUnits="userSpaceOnUse">
<stop stop-color="white"/>
</linearGradient>
<linearGradient id="paint1_linear" x1="4" y1="5" x2="63" y2="64" gradientUnits="userSpaceOnUse">
<stop stop-color="#9289F4"/>
<stop offset="1" stop-color="#5351FB"/>
</linearGradient>
<clipPath id="clip0">
<path d="M15.7998 14.4399H51.7898V54.5599H15.7998V14.4399Z" fill="white"/>
</clipPath>
</defs>
</svg>

<svg width="68" height="68" fill="none" xmlns="http://www.w3.org/2000/svg"><path fill="url(#a)" d="M0 0h68v68H0z"/><rect x="4" y="5" width="59" height="59" rx="10" fill="url(#b)"/><g clip-path="url(#c)" fill="#fff"><path d="M33.828 54.56c.656 0 1.441-.121 2.355-.364 3.085-1.16 4.627-3.393 4.627-6.7v-9.462c0-.18-.011-.337-.035-.47a.123.123 0 0 0-.005-.047.557.557 0 0 0-.03-.047c-.32-.807-.828-1.21-1.523-1.21h-.093l-.2.011h-.105c-.024 0-.05.012-.082.035-.805.314-1.207.976-1.207 1.987v9.697c0 .525-.133 1.038-.398 1.54-.75 1.183-1.863 1.774-3.339 1.774-1.117 0-2.062-.348-2.835-1.046-.633-.517-.957-1.469-.973-2.856l-.023-9.532c0-.087-.008-.177-.023-.27a.237.237 0 0 0-.006-.065.306.306 0 0 0-.041-.065c-.328-.823-.848-1.234-1.558-1.234a2.006 2.006 0 0 0-.457.082c-.781.314-1.172.843-1.172 1.587l.035 9.885c.008 1.473.414 2.801 1.219 3.985 1.5 1.857 3.44 2.785 5.822 2.785h.047z"/><path fill-rule="evenodd" clip-rule="evenodd" d="M22.603 30.135c-1.79 0-2.886.525-3.584 1.35-.57.676-1.58.76-2.254.187a1.608 1.608 0 0 1-.186-2.262c1.463-1.731 3.569-2.485 6.024-2.485 2.064 0 3.955.526 5.633 1.585 1.739-1.034 3.57-1.585 5.48-1.585 1.865 0 3.627.527 5.265 1.53 1.462-.987 3.216-1.441 5.171-1.441 2.452 0 4.612.712 6.367 2.212.672.575.753 1.588.18 2.262a1.596 1.596 0 0 1-2.255.181c-1.098-.939-2.492-1.446-4.292-1.446-1.7 0-2.923.452-3.816 1.225a1.995 1.995 0 0 1-2.47.113l-.028-.02c-1.352-.963-2.717-1.406-4.123-1.406-1.43 0-2.884.46-4.384 1.478a1.994 1.994 0 0 1-2.314-.053l-.05-.037c-1.255-.922-2.69-1.388-4.364-1.388z"/><path fill-rule="evenodd" clip-rule="evenodd" d="M42.586 21.042c-2.333-2.03-5.34-3.061-9.16-2.987-3.838.074-6.819 1.18-9.08 3.21-2.282 2.048-3.983 5.17-4.988 9.543a1.6 1.6 0 1 1-3.118-.72c1.103-4.8 3.055-8.596 5.972-11.215 2.937-2.635 6.7-3.942 11.152-4.027 4.47-.087 8.289 1.135 11.318 3.771 3.003 2.613 5.08 6.485 6.348 11.43a1.599 1.599 0 1 1-3.098.8c-1.166-4.545-2.987-7.752-5.346-9.805z"/></g><defs><linearGradient id="a" x1="0" y1="0" x2="68" y2="68" gradientUnits="userSpaceOnUse"><stop stop-color="#fff"/></linearGradient><linearGradient id="b" x1="4" y1="5" x2="63" y2="64" gradientUnits="userSpaceOnUse"><stop stop-color="#9289F4"/><stop offset="1" stop-color="#5351FB"/></linearGradient><clipPath id="c"><path d="M15.8 14.44h35.99v40.12H15.8V14.44z" fill="#fff"/></clipPath></defs></svg>
